static/fa/svgs/solid/box-open.svg

<svg xmlns="http://www.w3.org/2000/svg" viewBox="0 0 640 512"><!--! Font Awesome Free 6.1.1 by @fontawesome - https://fontawesome.com License - https://fontawesome.com/license/free (Icons: CC BY 4.0, Fonts: SIL OFL 1.1, Code: MIT License) Copyright 2022 Fonticons, Inc.--><path d="M75.23 33.4 320 63.1l244.8-29.7c6.7-.84 13.2 2.66 16.3 8.72l41.7 83.38c8.9 17.9-.6 39.6-19.9 45.1l-163.3 46.7c-13.9 3.9-28.8-1.9-36.2-15.2L320 63.1l-83.4 139c-7.4 13.3-22.3 19.1-36.2 15.2L37.07 170.6c-19.26-5.5-28.787-27.2-19.83-45.1l41.7-83.38c3.03-6.06 9.56-9.56 16.29-8.72zM321.1 128l54.8 91.4c14.9 24.8 44.6 35.7 72.5 28.6L576 211.6v166.9c0 22-15 41.2-36.4 46.6l-204.1 51c-10.2 2.6-20.8 2.6-31 0l-204.1-51C78.99 419.7 64 400.5 64 378.5V211.6L191.6 248c27.9 7.1 57.6-3.8 72.5-28.6l54.8-91.4h2.2z"/></svg>

<svg xmlns="http://www.w3.org/2000/svg" viewBox="0 0 640 512"><!--! Font Awesome Free 6.1.1 by @fontawesome - https://fontawesome.com License - https://fontawesome.com/license/free (Icons: CC BY 4.0, Fonts: SIL OFL 1.1, Code: MIT License) Copyright 2022 Fonticons, Inc. --><path d="M75.23 33.4L320 63.1L564.8 33.4C571.5 32.56 578 36.06 581.1 42.12L622.8 125.5C631.7 143.4 622.2 165.1 602.9 170.6L439.6 217.3C425.7 221.2 410.8 215.4 403.4 202.1L320 63.1L236.6 202.1C229.2 215.4 214.3 221.2 200.4 217.3L37.07 170.6C17.81 165.1 8.283 143.4 17.24 125.5L58.94 42.12C61.97 36.06 68.5 32.56 75.23 33.4H75.23zM321.1 128L375.9 219.4C390.8 244.2 420.5 255.1 448.4 248L576 211.6V378.5C576 400.5 561 419.7 539.6 425.1L335.5 476.1C325.3 478.7 314.7 478.7 304.5 476.1L100.4 425.1C78.99 419.7 64 400.5 64 378.5V211.6L191.6 248C219.5 255.1 249.2 244.2 264.1 219.4L318.9 128H321.1z"/></svg>
